assets/img/first visit icon .svg

<svg height="600" preserveAspectRatio="xMidYMid meet" viewBox="0 0 450 449.999984" width="600" xmlns="http://www.w3.org/2000/svg" zoomAndPan="magnify"><g fill="#e6a6cd"><path d="m367.949219 40.179688h-62.8125c-1.097657-14.625-13.347657-26.175782-28.246094-26.175782h-33.738281c-2.085938-8.0625-9.417969-14.019531-18.105469-14.019531s-16.019531 5.957031-18.105469 14.019531h-33.738281c-14.898437 0-27.148437 11.550782-28.242187 26.175782h-62.816407c-16.007812 0-29.035156 13.027343-29.035156 29.035156v351.753906c0 16.007812 13.027344 29.046875 29.035156 29.046875h285.804688c16.011719 0 29.039062-13.035156 29.039062-29.046875v-351.753906c-.003906-16.007813-13.03125-29.035156-29.039062-29.035156zm-142.902344-30.84375c3.449219 0 6.460937 1.882812 8.082031 4.667968.800782 1.375 1.261719 2.972656 1.261719 4.675782 0 1.703124-.457031 3.300781-1.261719 4.675781-1.621094 2.785156-4.632812 4.667969-8.082031 4.667969s-6.460937-1.882813-8.078125-4.667969c-.804688-1.375-1.265625-2.972657-1.265625-4.675781 0-1.703126.460937-3.300782 1.265625-4.675782 1.617188-2.785156 4.628906-4.667968 8.078125-4.667968zm-51.84375 14.019531h33.738281c2.085938 8.050781 9.417969 14.019531 18.105469 14.019531s16.019531-5.96875 18.105469-14.019531h33.738281c9.746094 0 17.789063 7.359375 18.851563 16.824219.097656.710937.132812 1.429687.132812 2.160156v38.566406h-141.65625v-38.566406c0-.730469.035156-1.449219.128906-2.160156 1.066406-9.464844 9.109375-16.824219 18.855469-16.824219zm185.757813 306.304687h-77.636719c-2.582031 0-4.675781 2.09375-4.675781 4.675782v77.644531h-185.515626v-333.785157h53.734376v7.386719c0 2.582031 2.085937 4.675781 4.675781 4.675781h151.007812c2.589844 0 4.675781-2.09375 4.675781-4.675781v-7.386719h53.734376zm-6.609376 9.351563-66.351562 66.347656v-66.347656zm35.28125 81.957031c0 10.855469-8.828124 19.695312-19.683593 19.695312h-285.804688c-10.855469 0-19.683593-8.839843-19.683593-19.695312v-351.753906c0-10.855469 8.828124-19.683594 19.683593-19.683594h62.722657v19.3125h-58.410157c-2.589843 0-4.675781 2.09375-4.675781 4.675781v343.136719c0 2.582031 2.085938 4.675781 4.675781 4.675781h194.867188c.148437 0 .300781-.007812.457031-.019531.300781-.027344.601562-.09375.898438-.1875.429687-.121094.851562-.316406 1.234374-.578125.253907-.160156.496094-.355469.710938-.582031v-.007813l82.316406-82.3125h.007813c.109375-.113281.214843-.226562.308593-.335937v-.011719c.195313-.242187.375-.496094.515626-.765625.136718-.269531.253906-.5625.34375-.851562.039062-.140626.074218-.28125.101562-.417969.03125-.132813.050781-.253907.066406-.382813.019532-.1875.027344-.367187.027344-.542968v-260.816407c0-2.582031-2.082031-4.675781-4.675781-4.675781h-58.410157v-19.3125h62.722657c10.855469 0 19.683593 8.828125 19.683593 19.683594zm0 0"/><path d="m197.757812 186.449219c1.300782 5.414062 6.144532 9.339843 11.585938 9.339843 3.949219-.015624 7.277344-3.140624 7.585938-7.105468 1-13.074219 5.03125-25.136719 7.621093-28.195313 2.589844 3.058594 6.628907 15.121094 7.632813 28.195313.296875 3.964844 3.625 7.089844 7.628906 7.105468 5.386719 0 10.242188-3.925781 11.53125-9.339843l12.136719-50.753907c2.535156-10.585937-.019531-21.367187-6.488281-27.464843-4.601563-4.339844-10.746094-5.769531-16.851563-3.917969l-7.894531 2.394531c-5.105469 1.550781-10.285156 1.550781-15.382813 0l-7.902343-2.394531c-6.105469-1.851562-12.25-.421875-16.851563 3.917969-6.46875 6.097656-9.015625 16.878906-6.488281 27.464843zm.769532-71.417969c1.53125-1.441406 3.261718-2.171875 5.179687-2.171875.8125 0 1.664063.140625 2.542969.402344l7.894531 2.394531c6.910157 2.09375 13.914063 2.09375 20.816407 0l7.890624-2.394531c2.9375-.886719 5.535157-.289063 7.726563 1.769531 3.347656 3.148438 5.816406 10.089844 3.804687 18.488281l-12.136718 50.757813c-.148438.644531-.515625 1.179687-.957032 1.554687-.878906-7.929687-4.769531-35.144531-16.738281-35.144531-11.960937 0-15.859375 27.214844-16.738281 35.144531-.441406-.375-.796875-.910156-.953125-1.554687l-12.140625-50.757813c-2.011719-8.398437.46875-15.339843 3.808594-18.488281zm0 0"/><path d="m153.992188 222.722656c-2.089844-1.515625-5.015626-1.054687-6.53125 1.03125l-18.242188 25.078125-7.628906-7.992187c-1.78125-1.871094-4.742188-1.9375-6.609375-.15625-1.867188 1.785156-1.9375 4.742187-.15625 6.609375l11.5 12.050781c.886719.925781 2.109375 1.445312 3.382812 1.445312.105469 0 .207031-.003906.3125-.011718 1.382813-.089844 2.652344-.792969 3.46875-1.914063l21.53125-29.609375c1.519531-2.085937 1.058594-5.011718-1.027343-6.53125zm0 0"/><path d="m153.992188 283.910156c-2.089844-1.519531-5.015626-1.054687-6.53125 1.03125l-18.242188 25.078125-7.628906-7.996093c-1.78125-1.867188-4.742188-1.9375-6.609375-.152344-1.867188 1.78125-1.9375 4.742187-.15625 6.609375l11.5 12.046875c.886719.929687 2.109375 1.449218 3.382812 1.449218.105469 0 .207031-.003906.3125-.011718 1.382813-.09375 2.652344-.792969 3.46875-1.914063l21.53125-29.609375c1.519531-2.089844 1.058594-5.011718-1.027343-6.53125zm0 0"/><path d="m153.992188 345.09375c-2.089844-1.515625-5.015626-1.054688-6.53125 1.03125l-18.242188 25.078125-7.628906-7.992187c-1.78125-1.867188-4.742188-1.9375-6.609375-.15625-1.867188 1.785156-1.9375 4.742187-.15625 6.609374l11.5 12.050782c.886719.925781 2.109375 1.445312 3.382812 1.445312.105469 0 .207031-.003906.3125-.011718 1.382813-.089844 2.652344-.792969 3.46875-1.914063l21.53125-29.609375c1.519531-2.085938 1.058594-5.011719-1.027343-6.53125zm0 0"/><path d="m170.023438 233.246094c0 2.582031 2.09375 4.675781 4.675781 4.675781h159.320312c2.582031 0 4.675781-2.09375 4.675781-4.675781 0-2.582032-2.09375-4.675782-4.675781-4.675782h-159.320312c-2.582031 0-4.675781 2.09375-4.675781 4.675782zm0 0"/><path d="m334.019531 243.046875h-159.320312c-2.582031 0-4.675781 2.09375-4.675781 4.675781 0 2.582032 2.09375 4.675782 4.675781 4.675782h159.320312c2.582031 0 4.675781-2.09375 4.675781-4.675782 0-2.582031-2.09375-4.675781-4.675781-4.675781zm0 0"/><path d="m334.019531 292.304688h-159.320312c-2.582031 0-4.675781 2.09375-4.675781 4.675781 0 2.585937 2.09375 4.675781 4.675781 4.675781h159.320312c2.582031 0 4.675781-2.089844 4.675781-4.675781 0-2.582031-2.09375-4.675781-4.675781-4.675781zm0 0"/><path d="m334.019531 306.785156h-159.320312c-2.582031 0-4.675781 2.09375-4.675781 4.675782 0 2.582031 2.09375 4.675781 4.675781 4.675781h159.320312c2.582031 0 4.675781-2.09375 4.675781-4.675781 0-2.582032-2.09375-4.675782-4.675781-4.675782zm0 0"/><path d="m262.890625 356.042969h-88.191406c-2.582031 0-4.675781 2.09375-4.675781 4.675781s2.09375 4.675781 4.675781 4.675781h88.191406c2.582031 0 4.675781-2.09375 4.675781-4.675781s-2.09375-4.675781-4.675781-4.675781zm0 0"/><path d="m262.890625 370.523438h-88.191406c-2.582031 0-4.675781 2.09375-4.675781 4.675781s2.09375 4.675781 4.675781 4.675781h88.191406c2.582031 0 4.675781-2.09375 4.675781-4.675781s-2.09375-4.675781-4.675781-4.675781zm0 0"/></g></svg>

<svg xmlns="http://www.w3.org/2000/svg" xmlns:xlink="http://www.w3.org/1999/xlink" width="600" zoomAndPan="magnify" viewBox="0 0 450 449.999984" height="600" preserveAspectRatio="xMidYMid meet" version="1.0"><path fill="#e6a6cd" d="M 367.949219 40.179688 L 305.136719 40.179688 C 304.039062 25.554688 291.789062 14.003906 276.890625 14.003906 L 243.152344 14.003906 C 241.066406 5.941406 233.734375 -0.015625 225.046875 -0.015625 C 216.359375 -0.015625 209.027344 5.941406 206.941406 14.003906 L 173.203125 14.003906 C 158.304688 14.003906 146.054688 25.554688 144.960938 40.179688 L 82.144531 40.179688 C 66.136719 40.179688 53.109375 53.207031 53.109375 69.214844 L 53.109375 420.96875 C 53.109375 436.976562 66.136719 450.015625 82.144531 450.015625 L 367.949219 450.015625 C 383.960938 450.015625 396.988281 436.980469 396.988281 420.96875 L 396.988281 69.214844 C 396.984375 53.207031 383.957031 40.179688 367.949219 40.179688 Z M 225.046875 9.335938 C 228.496094 9.335938 231.507812 11.21875 233.128906 14.003906 C 233.929688 15.378906 234.390625 16.976562 234.390625 18.679688 C 234.390625 20.382812 233.933594 21.980469 233.128906 23.355469 C 231.507812 26.140625 228.496094 28.023438 225.046875 28.023438 C 221.597656 28.023438 218.585938 26.140625 216.96875 23.355469 C 216.164062 21.980469 215.703125 20.382812 215.703125 18.679688 C 215.703125 16.976562 216.164062 15.378906 216.96875 14.003906 C 218.585938 11.21875 221.597656 9.335938 225.046875 9.335938 Z M 173.203125 23.355469 L 206.941406 23.355469 C 209.027344 31.40625 216.359375 37.375 225.046875 37.375 C 233.734375 37.375 241.066406 31.40625 243.152344 23.355469 L 276.890625 23.355469 C 286.636719 23.355469 294.679688 30.714844 295.742188 40.179688 C 295.839844 40.890625 295.875 41.609375 295.875 42.339844 L 295.875 80.90625 L 154.21875 80.90625 L 154.21875 42.339844 C 154.21875 41.609375 154.253906 40.890625 154.347656 40.179688 C 155.414062 30.714844 163.457031 23.355469 173.203125 23.355469 Z M 358.960938 329.660156 L 281.324219 329.660156 C 278.742188 329.660156 276.648438 331.753906 276.648438 334.335938 L 276.648438 411.980469 L 91.132812 411.980469 L 91.132812 78.195312 L 144.867188 78.195312 L 144.867188 85.582031 C 144.867188 88.164062 146.953125 90.257812 149.542969 90.257812 L 300.550781 90.257812 C 303.140625 90.257812 305.226562 88.164062 305.226562 85.582031 L 305.226562 78.195312 L 358.960938 78.195312 Z M 352.351562 339.011719 L 286 405.359375 L 286 339.011719 Z M 387.632812 420.96875 C 387.632812 431.824219 378.804688 440.664062 367.949219 440.664062 L 82.144531 440.664062 C 71.289062 440.664062 62.460938 431.824219 62.460938 420.96875 L 62.460938 69.214844 C 62.460938 58.359375 71.289062 49.53125 82.144531 49.53125 L 144.867188 49.53125 L 144.867188 68.84375 L 86.457031 68.84375 C 83.867188 68.84375 81.78125 70.9375 81.78125 73.519531 L 81.78125 416.65625 C 81.78125 419.238281 83.867188 421.332031 86.457031 421.332031 L 281.324219 421.332031 C 281.472656 421.332031 281.625 421.324219 281.78125 421.3125 C 282.082031 421.285156 282.382812 421.21875 282.679688 421.125 C 283.109375 421.003906 283.53125 420.808594 283.914062 420.546875 C 284.167969 420.386719 284.410156 420.191406 284.625 419.964844 L 284.625 419.957031 L 366.941406 337.644531 L 366.949219 337.644531 C 367.058594 337.53125 367.164062 337.417969 367.257812 337.308594 L 367.257812 337.296875 C 367.453125 337.054688 367.632812 336.800781 367.773438 336.53125 C 367.910156 336.261719 368.027344 335.96875 368.117188 335.679688 C 368.15625 335.539062 368.191406 335.398438 368.21875 335.261719 C 368.25 335.128906 368.269531 335.007812 368.285156 334.878906 C 368.304688 334.691406 368.3125 334.511719 368.3125 334.335938 L 368.3125 73.519531 C 368.3125 70.9375 366.230469 68.84375 363.636719 68.84375 L 305.226562 68.84375 L 305.226562 49.53125 L 367.949219 49.53125 C 378.804688 49.53125 387.632812 58.359375 387.632812 69.214844 Z M 387.632812 420.96875 " fill-opacity="1" fill-rule="nonzero"/><path fill="#e6a6cd" d="M 197.757812 186.449219 C 199.058594 191.863281 203.902344 195.789062 209.34375 195.789062 C 213.292969 195.773438 216.621094 192.648438 216.929688 188.683594 C 217.929688 175.609375 221.960938 163.546875 224.550781 160.488281 C 227.140625 163.546875 231.179688 175.609375 232.183594 188.683594 C 232.480469 192.648438 235.808594 195.773438 239.8125 195.789062 C 245.199219 195.789062 250.054688 191.863281 251.34375 186.449219 L 263.480469 135.695312 C 266.015625 125.109375 263.460938 114.328125 256.992188 108.230469 C 252.390625 103.890625 246.246094 102.460938 240.140625 104.3125 L 232.246094 106.707031 C 227.140625 108.257812 221.960938 108.257812 216.863281 106.707031 L 208.960938 104.3125 C 202.855469 102.460938 196.710938 103.890625 192.109375 108.230469 C 185.640625 114.328125 183.09375 125.109375 185.621094 135.695312 Z M 198.527344 115.03125 C 200.058594 113.589844 201.789062 112.859375 203.707031 112.859375 C 204.519531 112.859375 205.371094 113 206.25 113.261719 L 214.144531 115.65625 C 221.054688 117.75 228.058594 117.75 234.960938 115.65625 L 242.851562 113.261719 C 245.789062 112.375 248.386719 112.972656 250.578125 115.03125 C 253.925781 118.179688 256.394531 125.121094 254.382812 133.519531 L 242.246094 184.277344 C 242.097656 184.921875 241.730469 185.457031 241.289062 185.832031 C 240.410156 177.902344 236.519531 150.6875 224.550781 150.6875 C 212.589844 150.6875 208.691406 177.902344 207.8125 185.832031 C 207.371094 185.457031 207.015625 184.921875 206.859375 184.277344 L 194.71875 133.519531 C 192.707031 125.121094 195.1875 118.179688 198.527344 115.03125 Z M 198.527344 115.03125 " fill-opacity="1" fill-rule="nonzero"/><path fill="#e6a6cd" d="M 153.992188 222.722656 C 151.902344 221.207031 148.976562 221.667969 147.460938 223.753906 L 129.21875 248.832031 L 121.589844 240.839844 C 119.808594 238.96875 116.847656 238.902344 114.980469 240.683594 C 113.113281 242.46875 113.042969 245.425781 114.824219 247.292969 L 126.324219 259.34375 C 127.210938 260.269531 128.433594 260.789062 129.707031 260.789062 C 129.8125 260.789062 129.914062 260.785156 130.019531 260.777344 C 131.402344 260.6875 132.671875 259.984375 133.488281 258.863281 L 155.019531 229.253906 C 156.539062 227.167969 156.078125 224.242188 153.992188 222.722656 Z M 153.992188 222.722656 " fill-opacity="1" fill-rule="nonzero"/><path fill="#e6a6cd" d="M 153.992188 283.910156 C 151.902344 282.390625 148.976562 282.855469 147.460938 284.941406 L 129.21875 310.019531 L 121.589844 302.023438 C 119.808594 300.15625 116.847656 300.085938 114.980469 301.871094 C 113.113281 303.652344 113.042969 306.613281 114.824219 308.480469 L 126.324219 320.527344 C 127.210938 321.457031 128.433594 321.976562 129.707031 321.976562 C 129.8125 321.976562 129.914062 321.972656 130.019531 321.964844 C 131.402344 321.871094 132.671875 321.171875 133.488281 320.050781 L 155.019531 290.441406 C 156.539062 288.351562 156.078125 285.429688 153.992188 283.910156 Z M 153.992188 283.910156 " fill-opacity="1" fill-rule="nonzero"/><path fill="#e6a6cd" d="M 153.992188 345.09375 C 151.902344 343.578125 148.976562 344.039062 147.460938 346.125 L 129.21875 371.203125 L 121.589844 363.210938 C 119.808594 361.34375 116.847656 361.273438 114.980469 363.054688 C 113.113281 364.839844 113.042969 367.796875 114.824219 369.664062 L 126.324219 381.714844 C 127.210938 382.640625 128.433594 383.160156 129.707031 383.160156 C 129.8125 383.160156 129.914062 383.15625 130.019531 383.148438 C 131.402344 383.058594 132.671875 382.355469 133.488281 381.234375 L 155.019531 351.625 C 156.539062 349.539062 156.078125 346.613281 153.992188 345.09375 Z M 153.992188 345.09375 " fill-opacity="1" fill-rule="nonzero"/><path fill="#e6a6cd" d="M 170.023438 233.246094 C 170.023438 235.828125 172.117188 237.921875 174.699219 237.921875 L 334.019531 237.921875 C 336.601562 237.921875 338.695312 235.828125 338.695312 233.246094 C 338.695312 230.664062 336.601562 228.570312 334.019531 228.570312 L 174.699219 228.570312 C 172.117188 228.570312 170.023438 230.664062 170.023438 233.246094 Z M 170.023438 233.246094 " fill-opacity="1" fill-rule="nonzero"/><path fill="#e6a6cd" d="M 334.019531 243.046875 L 174.699219 243.046875 C 172.117188 243.046875 170.023438 245.140625 170.023438 247.722656 C 170.023438 250.304688 172.117188 252.398438 174.699219 252.398438 L 334.019531 252.398438 C 336.601562 252.398438 338.695312 250.304688 338.695312 247.722656 C 338.695312 245.140625 336.601562 243.046875 334.019531 243.046875 Z M 334.019531 243.046875 " fill-opacity="1" fill-rule="nonzero"/><path fill="#e6a6cd" d="M 334.019531 292.304688 L 174.699219 292.304688 C 172.117188 292.304688 170.023438 294.398438 170.023438 296.980469 C 170.023438 299.566406 172.117188 301.65625 174.699219 301.65625 L 334.019531 301.65625 C 336.601562 301.65625 338.695312 299.566406 338.695312 296.980469 C 338.695312 294.398438 336.601562 292.304688 334.019531 292.304688 Z M 334.019531 292.304688 " fill-opacity="1" fill-rule="nonzero"/><path fill="#e6a6cd" d="M 334.019531 306.785156 L 174.699219 306.785156 C 172.117188 306.785156 170.023438 308.878906 170.023438 311.460938 C 170.023438 314.042969 172.117188 316.136719 174.699219 316.136719 L 334.019531 316.136719 C 336.601562 316.136719 338.695312 314.042969 338.695312 311.460938 C 338.695312 308.878906 336.601562 306.785156 334.019531 306.785156 Z M 334.019531 306.785156 " fill-opacity="1" fill-rule="nonzero"/><path fill="#e6a6cd" d="M 262.890625 356.042969 L 174.699219 356.042969 C 172.117188 356.042969 170.023438 358.136719 170.023438 360.71875 C 170.023438 363.300781 172.117188 365.394531 174.699219 365.394531 L 262.890625 365.394531 C 265.472656 365.394531 267.566406 363.300781 267.566406 360.71875 C 267.566406 358.136719 265.472656 356.042969 262.890625 356.042969 Z M 262.890625 356.042969 " fill-opacity="1" fill-rule="nonzero"/><path fill="#e6a6cd" d="M 262.890625 370.523438 L 174.699219 370.523438 C 172.117188 370.523438 170.023438 372.617188 170.023438 375.199219 C 170.023438 377.78125 172.117188 379.875 174.699219 379.875 L 262.890625 379.875 C 265.472656 379.875 267.566406 377.78125 267.566406 375.199219 C 267.566406 372.617188 265.472656 370.523438 262.890625 370.523438 Z M 262.890625 370.523438 " fill-opacity="1" fill-rule="nonzero"/></svg>
